lib/svgs/team-bulb.svg

<?xml version="1.0" encoding="UTF-8"?>
<svg width="16px" height="16px" viewBox="0 0 16 16" version="1.1" xmlns="http://www.w3.org/2000/svg" xmlns:xlink="http://www.w3.org/1999/xlink">
    <!-- Generator: sketchtool 51.3 (57544) - http://www.bohemiancoding.com/sketch -->
    <title>team/team-bulb</title>
    <desc>Created with sketchtool.</desc>
    <defs></defs>
    <g id="Icons" stroke="none" stroke-width="1" fill="none" fill-rule="evenodd">
        <g id="Web" transform="translate(-291.000000, -2394.000000)" fill="#000000">
            <g id="team/team-bulb" transform="translate(291.000000, 2394.000000)">
                <path d="M9.33333333,14.6666667 L6.66666667,14.6666667 C6.26666667,14.6666667 6,14.9333333 6,15.3333333 C6,15.7333333 6.26666667,16 6.66666667,16 L9.33333333,16 C9.73333333,16 10,15.7333333 10,15.3333333 C10,14.9333333 9.73333333,14.6666667 9.33333333,14.6666667 L9.33333333,14.6666667 L9.33333333,14.6666667 M8,3.33333333 C5.4,3.33333333 3.33333333,5.4 3.33333333,8 C3.33333333,9.8 4.4,11.4666667 6,12.2 L6,13.3333333 C6,13.7333333 6.26666667,14 6.66666667,14 L9.33333333,14 C9.73333333,14 10,13.7333333 10,13.3333333 L10,12.2 C11.6,11.4666667 12.6666667,9.8 12.6666667,8 C12.6666667,5.4 10.6,3.33333333 8,3.33333333 L8,3.33333333 L8,3.33333333 M2,7.33333333 L0.666666667,7.33333333 C0.266666667,7.33333333 0,7.6 0,8 C0,8.4 0.266666667,8.66666667 0.666666667,8.66666667 L2,8.66666667 C2.4,8.66666667 2.66666667,8.4 2.66666667,8 C2.66666667,7.6 2.4,7.33333333 2,7.33333333 L2,7.33333333 L2,7.33333333 M4.2,4.2 C4.46666667,3.93333333 4.46666667,3.53333333 4.2,3.26666667 L3.26666667,2.33333333 C3,2.06666667 2.6,2.06666667 2.33333333,2.33333333 C2.06666667,2.6 2.06666667,3 2.33333333,3.26666667 L3.26666667,4.2 C3.4,4.33333333 3.6,4.4 3.73333333,4.4 C3.86666667,4.4 4.06666667,4.33333333 4.2,4.2 L4.2,4.2 L4.2,4.2 M8,2.66666667 C8.4,2.66666667 8.66666667,2.4 8.66666667,2 L8.66666667,0.666666667 C8.66666667,0.266666667 8.4,-8.8817842e-16 8,-8.8817842e-16 C7.6,-8.8817842e-16 7.33333333,0.266666667 7.33333333,0.666666667 L7.33333333,2 C7.33333333,2.4 7.6,2.66666667 8,2.66666667 L8,2.66666667 L8,2.66666667 M13.6666667,2.33333333 C13.4,2.06666667 13,2.06666667 12.7333333,2.33333333 L11.8,3.26666667 C11.5333333,3.53333333 11.5333333,3.93333333 11.8,4.2 C11.9333333,4.33333333 12.1333333,4.4 12.2666667,4.4 C12.4,4.4 12.6,4.33333333 12.7333333,4.2 L13.6666667,3.26666667 C13.9333333,3 13.9333333,2.6 13.6666667,2.33333333 L13.6666667,2.33333333 L13.6666667,2.33333333 M15.3333333,7.33333333 L14,7.33333333 C13.6,7.33333333 13.3333333,7.6 13.3333333,8 C13.3333333,8.4 13.6,8.66666667 14,8.66666667 L15.3333333,8.66666667 C15.7333333,8.66666667 16,8.4 16,8 C16,7.6 15.7333333,7.33333333 15.3333333,7.33333333 L15.3333333,7.33333333 L15.3333333,7.33333333" id="Shape"></path>
            </g>
        </g>
    </g>
</svg>

<svg xmlns="http://www.w3.org/2000/svg" viewBox="0 0 16 16">
    <path d="M9.333 14.667H6.667c-.4 0-.667.266-.667.666s.267.667.667.667h2.666c.4 0 .667-.267.667-.667s-.267-.666-.667-.666M8 3.333A4.638 4.638 0 0 0 3.333 8c0 1.8 1.067 3.467 2.667 4.2v1.133c0 .4.267.667.667.667h2.666c.4 0 .667-.267.667-.667V12.2A4.652 4.652 0 0 0 12.667 8c0-2.6-2.067-4.667-4.667-4.667m-6 4H.667C.267 7.333 0 7.6 0 8s.267.667.667.667H2c.4 0 .667-.267.667-.667S2.4 7.333 2 7.333M4.2 4.2a.644.644 0 0 0 0-.933l-.933-.934a.644.644 0 0 0-.934 0 .644.644 0 0 0 0 .934l.934.933a.72.72 0 0 0 .466.2.72.72 0 0 0 .467-.2M8 2.667c.4 0 .667-.267.667-.667V.667C8.667.267 8.4 0 8 0s-.667.267-.667.667V2c0 .4.267.667.667.667m5.667-.334a.644.644 0 0 0-.934 0l-.933.934a.644.644 0 0 0 0 .933.72.72 0 0 0 .467.2.72.72 0 0 0 .466-.2l.934-.933a.644.644 0 0 0 0-.934m1.666 5H14c-.4 0-.667.267-.667.667s.267.667.667.667h1.333c.4 0 .667-.267.667-.667s-.267-.667-.667-.667"/>
</svg>
